!!!!SEGMENT: pl-wtm--r-2481--002_hertz-michal--polka.krn
!!!cenid: 18xx:2396
!!!COM: Hertz, Michał
!!!COM-rismID:
!!!CDT: 1844/09/28-~1918
!!!CNT: Polish
!!!OTL: Polka
!!!PDT:
!!!AGN: Secular; Polka
!!!SMS-siglum: PL-Wtm
!!!SMS-shelfmark: R 2481
!!!SMS-shelfwork: 002 W
!!!SMS-variant:
!!!SMS-altvar:
!!!NIFC-rismSourceID: 1001082220
!!!NIFC-islandoraID:
!!!URL-pdf-islandora:
!!!URL-scan:
!!!ONB-nifc: UWAGA: w zbiorze: 1. Marsz (oznaczony jako 1.) i 2. Polka (oznaczona jako 2.)
!!!AIN: 2 piano
!!!key:
**kern	**kern	**dynam
*part2	*part1	*part1
*staff2	*staff1	*
*Ipiano	*Ipiano	*
*I"[Piano]	*I"[Piano]	*
*clefF4	*clefG2	*
*k[b-]	*k[b-]	*
*B-:	*B-:	*
*M2/4	*M2/4	*
*>[A,B,C,C,A]	*>[A,B,C,C,A]	*
=1	=1	=1
*>A	*>A	*
!	!LO:TX:B:i:a:t=2.:color=violet	!
!	!LO:TX:B:i:a:t=Allo capricioso.:color=violet	!
!	!LO:TX:t=P:problem=all\left or right&colon; global	!
!	!LO:TX:t=P:problem=znak segno na początku	!
!LO:TX:t=[segno]	!LO:TX:t=[segno]	!LO:DY:b:rj
8F\L	(>16cc\LL	f
.	16dd\J)	.
8fJ 8c\	8cc'>\J	.
8A\L	(>16ff\LL	.
.	16gg\J)	.
8fJ 8c\	8ff'>\J	.
=2	=2	=2
8G\L	(>16ee\LL	.
.	16ff\J)	.
8eJ 8c\	8ee'>\J	.
8C\L	4bb-\	.
8eJ 8c\	.	.
=3	=3	=3
8G\L	(>16ee\LL	.
.	16ff\J)	.
8eJ 8c\	8ee'>\J	.
8C\L	8ddd\L	.
8eJ 8c\	8ccc\J	.
=4	=4	=4
8F\L	(>16ff\LL	.
.	16gg\J	.
8cJ 8A\	8ff\J)	.
8C\L	4aa\	.
8cJ 8F\	.	.
!!LO:LB:g=original
=5	=5	=5
8F\L	(>16cc\LL	.
.	16dd\J)	.
8fJ 8c\	8cc'>\J	.
8A\L	(>16ff\LL	.
.	16gg\J)	.
8fJ 8c\	8ff'>\J	.
=6	=6	=6
8G\L	(>16ee\LL	.
.	16ff\J)	.
8eJ 8c\	8ee'>\J	.
8C\L	4bb-\	.
8eJ 8c\	.	.
=7	=7	=7
8G\L	(>16ee\LL	.
.	16ff\J	.
8eJ 8c\	8ee\J)	.
8C\L	8ddd\L	.
8eJ 8B-\	8ccc\J	.
=8	=8	=8
8F\L	8ff\L	.
8cJ 8A\	8aaJ 8cc\	.
!	!LO:TX:Bi:b:t=Fine:color=violet	!
4c 4F\	4ff 4a\	.
!!LO:LB:g=original
=9||	=9||	=9||
*>B	*>B	*
8C\L	(>16ee\LL	.
.	16ff\J)	.
8eJ 8c 8G\	8gg'>\J	.
8GG\L	(>16aa\LL	.
.	16gg\J)	.
8d#XJ 8c 8A\	8ff#X'>\J	.
=10	=10	=10
8C\L	(>8gg\L	.
8eJ 8c 8G\	8ccc\J)	.
8e 8c 8G\	8gg\L	.
8r	16r	.
.	16ee\Jk	.
=11	=11	=11
8GG\L	(>8ff\L	.
8fJ 8Bn 8G\	8bbn\J)	.
8f 8B 8G\	8ff\L	.
8r	16r	.
.	16dd\Jk	.
=12	=12	=12
8C\L	(>8ee\L	.
8d#XJ 8c 8F#X\	8aa\J)	.
8e 8c 8G\	16gg\LL	.
.	16ee\	.
8r	16cc\	.
.	16g\JJ	.
!!LO:LB:g=original
=13	=13	=13
8C\L	(>16ee\LL	.
.	16ff\J)	.
8eJ 8c 8G\	8gg'>\J	.
8GG\L	(>16aa\LL	.
.	16gg\J)	.
8d#XJ 8c 8A\	8ff#X'>\J	.
=14	=14	=14
8CL 8GG\	8gg\L	.
.	(>8qgg/	.
8eJ 8c 8G\	8ccc\J)	.
8e 8c 8G\	8gg\L	.
8r	16r	.
.	16ee\Jk	.
=15	=15	=15
8D\L	8ff\L	.
.	8qff/	.
8fJ 8Bn 8G\	8bbn\J	.
8f 8B 8G\	8ff\L	.
8r	16r	.
.	16dd\Jk	.
=16	=16	=16
(>8C\L	8cc\L	.
8c\J)	8ccJ 8bn\	.
8c\	(>16ccLL 16b-X\	.
.	16a\)	.
8r	16b-'>\	.
!	!LO:TX:t=P:problem=znak segno na podwójnej kresce	!
!LO:TX:t=[segno]	!LO:TX:t=[segno]	!
.	16bn\JJ	.
!!LO:PB:g=original
=17!|:	=17!|:	=17!|:
*>C	*>C	*
*k[b-e-]	*k[b-e-]	*
!	!LO:TX:i:B:a:t=Trio.:color=violet	!LO:DY:b:rj
8B-^>\L	8r	f
16A'>\L	8ff 8dd 8b-\	.
16G'>\JJ	.	.
8A'>\L	8r	.
8B-'>\J	8ff 8dd 8b-\	.
=18	=18	=18
8A\L	8r	.
8G\	8ff 8ee- 8cc\	.
8A\	8r	.
8F\J	8ff 8ee- 8a\	.
=19	=19	=19
8B-^>\L	8r	.
16c\L	8ff 8dd 8b-\	.
16d\JJ	.	.
8e-\L	8r	.
8d\J	8ff 8dd 8b-\	.
=20	=20	=20
*	*^	*
8c\L	8r	4ryy	.
16d\L	8ff 8ee- 8a\	.	.
16c\JJ	.	.	.
!	!	!	!LO:DY:b
4A\	(>8gg/L	4ee- 4cc\	sf
.	8ff/J)	.	.
*	*v	*v	*
!!LO:LB:g=original
=21	=21	=21
8B-^>\L	8r	.
16A\L	8ff 8dd 8b-\	.
16G\JJ	.	.
8A\L	8r	.
8B-\J	8ff 8dd 8b-\	.
=22	=22	=22
8A\L	8r	.
8G\J	8ff 8ee- 8cc\	.
8A\L	8r	.
8F\J	8ff 8ee- 8cc\	.
=23	=23	=23
8B-^>\L	8r	.
16c\L	8ff 8dd 8b-\	.
16d\JJ	.	.
8e-\L	8r	.
8d\J	8ff 8dd 8b-\	.
=24	=24	=24
16c\LL	8r	.
16d\	.	.
16c\	8ff 8ee- 8a\	.
16F\JJ	.	.
!LO:TX:Bi:b:t=Polka da capo al fine.:color=violet	!	!
4B-\	4ff 4dd 4b-\	.
=:|!	=:|!	=:|!
*-	*-	*-
!!!system-decoration: {(s1,s2)}
!!!RDF**kern: > = above
!!!RDF**kern: < = below
!!!ENC: Marcin Jachim
!!!END: 2021-06-10
!!!ENC: Antoni Szymański
!!!END: 2021-10-09
